X:1
T:Title
%%score ( 1 2 ) 3
L:1/8
Q:1/4=107
M:6/8
K:Bb
V:1 treble nm="Bright Piano"
V:2 treble 
V:3 bass nm="Bright Piano"
V:1
 [DF]2 [DF] [_D=E]2 [=DF] | [EG]2 [DF] [B,D]2 [DF] | [DB]3 [Ec]3 | [Fd]6 | [Fd]2 [Fe] [F=B]2 [Fd] | %5
w: Chas.~H.~Gabriel * * *|||||
 [Ec]3 [EF]3 | [Ec]2 [Ed] [EA]2 [Ec] | [DB]6 | [EG]2 [GB] [^FA]2 [GB] | [Ac]2 [GB] [FA]2 [EG] | %10
w: |||||
 [DF]3 [DB]3 | [Fd]6 | [Fd]2 [Fd] [Ge]2 [Fd] | [=Ec]3 [EG]3 | [EA]3 [EF]3 | [DB]6 | %16
w: ||||||
 [Fd]2 [Fd] [Ge]2 [Fd] | [=Ed]2 [Ec] [EG]2 [Ed] | [Ec]2 [Ec] [Fd]2 [Ec] | [Ec]2 [DB] .[DF]3 | %20
w: ||||
 [EG]2 [GB] [^FA]2 [GB] | [Ac]2 [GB] [FA]2 [EG] | [DF]3 [Fd]3 | [Fc]6 | [Fd]2 [Fd] [Ge]2 [Fd] | %25
w: |||||
 [=Ed]2 [Ec] [EG]2 [Ed] | [Ec]2 [Ec] [Fd]2 [Ec] |[M:5/8] [DB]-[DB]- [DB]3 |[M:1/8] [DB] | %29
w: ||||
[M:3/4] [_DB]2 [DB] [DA]2 [DG] |[M:7/8] F2- [CF] [Ff]3 [Ge] |[M:3/4] [Fd]2 [Fd] [Ec]2 [Ec] | %32
w: |||
 [DB]6 |] %33
w: |
V:2
 x6 | x6 | x6 | x6 | x6 | x6 | x6 | x6 | x6 | x6 | x6 | x6 | x6 | x6 | x6 | x6 | x6 | x6 | x6 | %19
 x6 | x6 | x6 | x6 | x6 | x6 | x6 | x6 |[M:5/8] x5 |[M:1/8] x |[M:3/4] x6 |[M:7/8] D2 z z z z2 | %31
[M:3/4] x6 | x6 |] %33
V:3
 [B,,B,]2 [B,,B,] [B,,B,]2 [B,,B,] | [B,,B,]2 [B,,B,] [B,,F,]2 [B,,B,] | [B,,F,]3 [B,,F,]3 | %3
 [B,,B,]6 | [F,B,]2 [F,C] [F,_A,]2 [F,A,] | [F,A,]3 [F,A,]3 | [F,A,]2 [F,A,] [F,C]2 [F,A,] | %7
 [B,,B,]6 | [E,B,]2 [E,E] [E,E]2 [E,E] | [E,E]2 [E,E] [E,E]2 [E,B,] | [B,,B,]3 [B,,F,]3 | %11
 [B,,B,]6 | [G,=B,]2 [G,B,] [G,B,]2 [G,B,] | [C,B,]3 [C,C]3 | [F,C]3 [F,A,]3 | [B,,F,B,]6 | %16
 [B,,B,]2 [B,,B,] [B,,B,]2 [B,,B,] | [C,B,]2 [C,B,] [C,B,]2 [C,B,] | %18
 [F,A,]2 [F,A,] [F,A,]2 [F,A,] | [B,,B,]2 [B,,B,] .[B,,B,]3 | [E,B,]2 [E,B,] [E,C]2 [E,B,] | %21
 [E,B,]2 [E,B,] [E,B,]2 [E,B,] | [B,,B,]3 [B,,B,]3 | [F,A,]6 | [B,,B,]2 [B,,B,] [B,,B,]2 [B,,B,] | %25
 [C,B,]2 [C,B,] [C,B,]2 [C,B,] | [F,A,]2 [F,A,] [F,A,]2 [^F,A,] |[M:5/8] [G,B,]-[G,B,]- [G,B,]3 | %28
[M:1/8] [F,B,] |[M:3/4] [=E,B,]2 [E,B,] [E,B,]2 [E,B,] |[M:7/8] [F,B,]2 [E,A,] [D,B,]3 [E,B,] | %31
[M:3/4] [F,B,]2 [F,B,] [F,A,]2 F, | [B,,F,]6 |] %33

